build/img/icons/bag.svg

<svg xmlns="http://www.w3.org/2000/svg" viewBox="0 0 32 32.000001" width="47" height="47"><g transform="translate(0,-1020.3622)"><g><path d="M 15.53125 1 C 13.036452 1 11 3.0148002 11 5.5 L 11 8 L 9.59375 8 L 9.5625 8 A 0.50004996 0.50004996 0 0 0 9.5 8 L 6.5 8 C 5.6776486 8 5 8.6777 5 9.5 L 5 14.5 L 5 18.46875 L 5 26 L 5 29.5 C 5 30.3224 5.6776486 31 6.5 31 L 9.5 31 L 25.5 31 L 26.5 31 A 0.50004996 0.50004996 0 0 0 27 30.5 L 27 9.5 C 27 8.6777 26.322351 8 25.5 8 L 22.03125 8 L 22.03125 6.5 C 22.03125 4.3360272 20.51304 2.5248096 18.46875 2.09375 C 17.6771 1.4161863 16.656049 1 15.53125 1 z M 15.53125 2 C 15.856933 2 16.170482 2.0445837 16.46875 2.125 C 14.486164 2.60135 13 4.3796674 13 6.5 L 13 8 L 12 8 L 12 5.5 C 12 3.5545002 13.570157 2 15.53125 2 z M 17.53125 3 C 17.701421 3 17.867871 3.0086008 18.03125 3.03125 C 18.666483 3.6630625 19.03125 4.52725 19.03125 5.5 L 19.03125 8 L 14 8 L 14 6.5 C 14 4.5545002 15.570157 3 17.53125 3 z M 19.6875 3.75 C 20.512703 4.3882201 21.03125 5.3703063 21.03125 6.5 L 21.03125 8 L 20.03125 8 L 20.03125 5.5 C 20.03125 4.8787 19.916482 4.2883687 19.6875 3.75 z M 6.5 9 L 8.09375 9 C 8.0397454 9.15394 8 9.3286875 8 9.5 C 7.99835 9.723 7.8496744 9.9738 7.53125 10.125 C 7.2108787 10.2771 6.7891213 10.2771 6.46875 10.125 C 6.1503256 9.9716 6.0016473 9.723 6 9.5 C 6 9.4286 6.0066913 9.3727625 6.03125 9.3125 C 6.1049261 9.1317125 6.2857636 9 6.5 9 z M 9.5 9 A 0.50004996 0.50004996 0 0 0 9.5625 9 L 9.59375 9 L 13 9 L 13 10.59375 C 12.41498 10.798934 12 11.348854 12 12 C 12 12.8225 12.677495 13.5 13.5 13.5 C 14.322505 13.5 15 12.8225 15 12 C 15 11.348854 14.58502 10.798934 14 10.59375 L 14 9 L 21.03125 9 L 21.03125 10.59375 C 20.431914 10.790716 20 11.338573 20 12 C 20 12.8225 20.677495 13.5 21.5 13.5 C 22.322505 13.5 23 12.8225 23 12 C 23 11.359135 22.601983 10.806666 22.03125 10.59375 L 22.03125 9 L 25.5 9 C 25.785649 9 26 9.2144 26 9.5 L 26 30 L 25.5 30 L 9.5 30 C 9.4285879 30 9.3727648 29.993305 9.3125 29.96875 C 9.1317057 29.895086 9 29.714275 9 29.5 L 9 25.25 L 9 25.15625 L 9 17.65625 L 9 14.5 L 9 9.5 C 9 9.4286 9.0066913 9.3727625 9.03125 9.3125 C 9.1049261 9.1317125 9.2857636 9 9.5 9 z M 6 11 C 6.0131169 11.006582 6.0179582 11.02494 6.03125 11.03125 C 6.6390808 11.31975 7.3609192 11.31975 7.96875 11.03125 C 7.9820418 11.024978 7.9868831 11.006546 8 11 L 8 14.5 L 8 17.65625 L 8 17.8125 L 8 25.15625 L 8 25.25 L 8 29.5 C 8 29.671333 8.0397454 29.846054 8.09375 30 L 6.5 30 C 6.2143514 30 6 29.7857 6 29.5 L 6 26 L 6 18.46875 L 6 14.5 L 6 11 z M 13.5 11.5 C 13.782065 11.5 14 11.718 14 12 C 14 12.2821 13.782065 12.5 13.5 12.5 C 13.217935 12.5 13 12.2821 13 12 C 13 11.718 13.217935 11.5 13.5 11.5 z M 21.5 11.5 C 21.782065 11.5 22 11.718 22 12 C 22 12.2821 21.782065 12.5 21.5 12.5 C 21.217935 12.5 21 12.2821 21 12 C 21 11.718 21.217935 11.5 21.5 11.5 z " transform="translate(-5e-7,1020.3622)" fill="currentColor"></path></g></g></svg>

<svg xmlns="http://www.w3.org/2000/svg" viewBox="0 0 32 32" width="47" height="47"><path d="M15.531 1C13.036 1 11 3.015 11 5.5V8H9.562A.5.5 0 009.5 8h-3C5.678 8 5 8.678 5 9.5v20c0 .822.678 1.5 1.5 1.5h20a.5.5 0 00.5-.5v-21c0-.822-.678-1.5-1.5-1.5h-3.469V6.5a4.497 4.497 0 00-3.562-4.406A4.5 4.5 0 0015.53 1zm0 1c.326 0 .64.045.938.125C14.486 2.601 13 4.38 13 6.5V8h-1V5.5C12 3.555 13.57 2 15.531 2zm2 1c.17 0 .337.009.5.031.635.632 1 1.496 1 2.469V8H14V6.5C14 4.555 15.57 3 17.531 3zm2.156.75a3.44 3.44 0 011.344 2.75V8h-1V5.5a4.45 4.45 0 00-.344-1.75zM6.5 9h1.594A1.543 1.543 0 008 9.5c-.002.223-.15.474-.469.625-.32.152-.742.152-1.062 0C6.15 9.972 6.002 9.723 6 9.5c0-.071.007-.127.031-.188A.506.506 0 016.5 9zm3 0a.5.5 0 00.062 0H13v1.594c-.585.205-1 .755-1 1.406 0 .822.677 1.5 1.5 1.5S15 12.822 15 12c0-.651-.415-1.201-1-1.406V9h7.031v1.594A1.48 1.48 0 0020 12c0 .822.677 1.5 1.5 1.5S23 12.822 23 12c0-.64-.398-1.193-.969-1.406V9H25.5c.286 0 .5.214.5.5V30H9.5a.467.467 0 01-.188-.031A.506.506 0 019 29.5v-20c0-.071.007-.127.031-.188A.506.506 0 019.5 9zM6 11c.013.007.018.025.031.031.608.289 1.33.289 1.938 0 .013-.006.018-.024.031-.031v18.5c0 .171.04.346.094.5H6.5a.488.488 0 01-.5-.5V11zm7.5.5c.282 0 .5.218.5.5 0 .282-.218.5-.5.5a.493.493 0 01-.5-.5c0-.282.218-.5.5-.5zm8 0c.282 0 .5.218.5.5 0 .282-.218.5-.5.5a.493.493 0 01-.5-.5c0-.282.218-.5.5-.5z" fill="currentColor"/></svg>
